X:4501
T:My Fiddle
O:england
B:Joyce, P. W.; "Old Irish Folk Music and Songs"
R:hornpipe
L:1/8
M:C|
K:C
ed|cGEG c2 ed|cGEG c2 ed|cdec fedc|B2 d2 d2 ed|
cGEG c2 de|fgab c'bag|agae fdcB|c2 c2 c2:||:gf|
efge agfe|f2 d2 dcde|defd gfed|e2 c2 c2 ed|
cGEG cdec|fgab c'bag|agae fdcB|c2 c2 c2:|
